icons/database.svg

<svg width="24" height="24" viewBox="0 0 24 24" fill="none" xmlns="http://www.w3.org/2000/svg">
<path fill-rule="evenodd" clip-rule="evenodd" d="M5.29209 5.58052C5.01022 5.83042 5 5.97447 5 6C5 6.02553 5.01022 6.16958 5.29209 6.41948C5.57279 6.66834 6.03602 6.93815 6.69427 7.18499C8.0034 7.67591 9.87903 8 12 8C14.121 8 15.9966 7.67591 17.3057 7.18499C17.964 6.93815 18.4272 6.66834 18.7079 6.41948C18.9898 6.16958 19 6.02553 19 6C19 5.97447 18.9898 5.83042 18.7079 5.58052C18.4272 5.33166 17.964 5.06185 17.3057 4.81501C15.9966 4.32409 14.121 4 12 4C9.87903 4 8.0034 4.32409 6.69427 4.81501C6.03602 5.06185 5.57279 5.33166 5.29209 5.58052ZM19 8.61619C18.6909 8.77981 18.3574 8.92662 18.008 9.05765C16.4217 9.65251 14.2973 10 12 10C9.70269 10 7.57833 9.65251 5.99202 9.05765C5.64262 8.92662 5.3091 8.77981 5 8.61619V12C5 12.0187 5.00689 12.1594 5.28011 12.4067C5.55297 12.6538 6.01363 12.9298 6.69427 13.185C8.05244 13.6943 9.96153 14 12 14C14.0385 14 15.9476 13.6943 17.3057 13.185C17.9864 12.9298 18.447 12.6538 18.7199 12.4067C18.9931 12.1594 19 12.0187 19 12V8.61619ZM19 14.6158C18.6937 14.7782 18.3609 14.9253 18.008 15.0576C16.3656 15.6736 14.205 16 12 16C9.79501 16 7.63443 15.6736 5.99202 15.0576C5.6391 14.9253 5.30634 14.7782 5 14.6158V18C5 18.0187 5.00689 18.1594 5.28011 18.4067C5.55297 18.6538 6.01363 18.9298 6.69427 19.185C8.05244 19.6943 9.96153 20 12 20C14.0385 20 15.9476 19.6943 17.3057 19.185C17.9864 18.9298 18.447 18.6538 18.7199 18.4067C18.9931 18.1594 19 18.0187 19 18V14.6158ZM3 6C3 5.19711 3.43749 4.55194 3.96527 4.08401C4.49422 3.61504 5.20256 3.2384 5.99202 2.94235C7.57833 2.34749 9.70269 2 12 2C14.2973 2 16.4217 2.34749 18.008 2.94235C18.7974 3.2384 19.5058 3.61504 20.0347 4.08401C20.5625 4.55194 21 5.19711 21 6V18C21 18.777 20.5855 19.4156 20.0622 19.8894C19.5385 20.3634 18.8276 20.7503 18.008 21.0576C16.3656 21.6736 14.205 22 12 22C9.79501 22 7.63443 21.6736 5.99202 21.0576C5.17237 20.7503 4.46146 20.3634 3.93782 19.8894C3.41454 19.4156 3 18.777 3 18V6Z" fill="black"/>
</svg>

<svg
  width="24"
  height="24"
  viewBox="0 0 24 24"
  xmlns="http://www.w3.org/2000/svg"
>
  <path
    fill-rule="evenodd"
    clip-rule="evenodd"
    d="M5.292 5.58C5.01 5.83 5 5.975 5 6c0 .026.01.17.292.42.28.248.744.518 1.402.765C8.004 7.675 9.88 8 12 8s3.997-.324 5.306-.815c.658-.247 1.121-.517 1.402-.766C18.99 6.17 19 6.026 19 6c0-.026-.01-.17-.292-.42-.28-.248-.744-.518-1.402-.765C15.996 4.325 14.12 4 12 4s-3.997.324-5.306.815c-.658.247-1.121.517-1.402.766zM19 8.617a8.52 8.52 0 0 1-.992.442C16.422 9.653 14.298 10 12 10c-2.297 0-4.422-.347-6.008-.942A8.52 8.52 0 0 1 5 8.616V12c0 .019.007.16.28.407.273.247.734.523 1.414.778C8.052 13.695 9.962 14 12 14c2.039 0 3.948-.306 5.306-.815.68-.255 1.141-.531 1.414-.778.273-.248.28-.388.28-.407V8.616zm0 6c-.306.162-.64.31-.992.442-1.642.616-3.803.942-6.008.942s-4.366-.326-6.008-.942A8.468 8.468 0 0 1 5 14.616V18c0 .019.007.16.28.407.273.247.734.523 1.414.778C8.052 19.695 9.962 20 12 20c2.039 0 3.948-.306 5.306-.815.68-.255 1.141-.531 1.414-.778.273-.248.28-.388.28-.407v-3.384zM3 6c0-.803.437-1.448.965-1.916.53-.469 1.238-.846 2.027-1.142C7.578 2.347 9.702 2 12 2c2.297 0 4.422.347 6.008.942.79.296 1.498.673 2.027 1.142C20.562 4.552 21 5.197 21 6v12c0 .777-.415 1.416-.938 1.89-.524.473-1.234.86-2.054 1.168-1.642.616-3.803.942-6.008.942s-4.366-.326-6.008-.942c-.82-.308-1.53-.695-2.054-1.169C3.415 19.416 3 18.777 3 18V6z"
  />
</svg>
